X: 2
T: Come Up Stairs With Me  
S: O'Neills Music of Ireland: 1850 Melodies, 1903; page 221, tune #1172 
S: ONeills Dance Music of Ireland: 1001 Gems; 1907, page 86, tune #442
M: 9/8
L: 1/8
K: G Major
R: slip jig
|: D |\ 
G2 c BAG Bcd | ecA ABG FED | 
G2 c BAG Bcd | efg faf g2 :|
|: g |\ 
fed d2 g fed | ecA ABG FED |
[1 fed d2 g fed | efg faf g2 :|
[2 G2 c BAG Bcd | efg faf g2 |]
